X: 1
T:Constant Billy, Sherborne
M:6/8
L:1/8
S:CJS (MDT)
A:Sherborne
P:A(AB2)5A
K:G
P:A
|:D|G>Bd B>AG|cBc AFD|B>AG EFG|DEF G2:|
P:B
G|Bcd  ecB |ABc dBG|Bcd  ecB|ABc d3|
G>Bd B>AG|cBc AFD|B>AG EFG|DEF G2||
